assets/icons/workshop-icon.svg

<?xml version="1.0" encoding="UTF-8"?>
<svg width="61px" height="42px" viewBox="0 0 61 42" version="1.1" xmlns="http://www.w3.org/2000/svg" xmlns:xlink="http://www.w3.org/1999/xlink">
    <!-- Generator: Sketch 50.2 (55047) - http://www.bohemiancoding.com/sketch -->
    <title>Workshop icon</title>
    <desc>Created with Sketch.</desc>
    <defs></defs>
    <g id="Design" stroke="none" stroke-width="1" fill="none" fill-rule="evenodd">
        <g id="Open-page-V2" transform="translate(-762.000000, -1328.000000)">
            <g id="Workshop-card" transform="translate(730.000000, 1296.000000)">
                <g id="Workshop-icon" transform="translate(32.000000, 32.000000)">
                    <polygon id="Polygon" fill="#00E016" points="29.9299262 6 47.9299262 19.7507764 41.054538 42 18.8053144 42 11.9299262 19.7507764"></polygon>
                    <path d="M19.3378321,42 C19.2248039,42 19.1682897,42 19.0552615,41.9434859 C18.7161766,41.7739435 18.6031484,41.4348587 18.7726908,41.0957739 L37.0267562,1.30982326 L34.7096767,1.30982326 L18.038007,37.5353834 C17.9249788,37.7614399 17.6989222,37.8744682 17.4728657,37.8744682 C17.190295,37.8744682 16.9642385,37.7614399 16.8512102,37.5353834 L14.9862438,33.4098516 C14.8732155,33.2403092 14.8732155,33.0142526 14.9862438,32.8447102 L29.4538622,1.30982326 L27.1367827,1.30982326 L14.25156,29.2843198 C14.1385318,29.5103763 13.9124752,29.6799187 13.6864187,29.6799187 C13.403848,29.6799187 13.1777915,29.5103763 13.0647632,29.2843198 L0.0665123062,0.914224322 C-0.103030097,0.575139515 0.0665123062,0.236054709 0.405597112,0.0665123062 C0.688167784,-0.103030097 1.08376672,0.0665123062 1.25330913,0.405597112 L13.6864187,27.4758675 L26.1195282,0.405597112 C26.2325565,0.179540575 26.4586131,0.00999817187 26.7411837,0.00999817187 L30.4711166,0.00999817187 C30.6971731,0.00999817187 30.8667155,0.123026441 30.9797438,0.292568844 C31.0927721,0.462111247 31.1492862,0.744681919 31.0362579,0.914224322 L16.2860689,33.1272809 L17.4728657,35.7269311 L33.6924222,0.405597112 C33.8054505,0.179540575 34.0315071,0.00999817187 34.2575636,0.00999817187 L37.9874965,0.00999817187 C38.213553,0.00999817187 38.4396095,0.123026441 38.5526378,0.292568844 C38.6656661,0.462111247 38.6656661,0.744681919 38.6091519,0.914224322 L19.9029735,41.6044011 C19.7899452,41.8869717 19.5638887,42 19.3378321,42 Z M41.4913728,42 C41.3783445,42 41.3218304,42 41.2088021,41.9434859 C40.9262314,41.7739435 40.756689,41.4348587 40.9262314,41.0957739 L59.1802968,1.30982326 L56.8632173,1.30982326 L40.1915477,37.5353834 C40.0785194,37.7614399 39.8524629,37.8744682 39.6264064,37.8744682 C39.3438357,37.8744682 39.1177791,37.7614399 39.0047509,37.5353834 L37.1397844,33.4098516 C37.0832703,33.2403092 37.0832703,33.0142526 37.1397844,32.8447102 L51.6074028,1.30982326 L49.2903233,1.30982326 L36.4051007,29.2843198 C36.2920724,29.5103763 36.0660159,29.6799187 35.8399594,29.6799187 C35.5573887,29.6799187 35.3313321,29.5103763 35.274818,29.2843198 L32.1100265,22.3895954 C31.9404841,22.0505106 32.0535124,21.7114258 32.3925972,21.5418834 C32.731682,21.372341 33.1272809,21.5418834 33.2403092,21.824454 L35.8399594,27.4758675 L48.2730689,0.405597112 C48.3860972,0.179540575 48.6121537,0.00999817187 48.8947244,0.00999817187 L52.6246573,0.00999817187 C52.8507138,0.00999817187 53.0202562,0.123026441 53.1332845,0.292568844 C53.2463127,0.462111247 53.3028269,0.744681919 53.1897986,0.914224322 L38.4396095,33.1272809 L39.6264064,35.7269311 L55.8459629,0.405597112 C55.9589912,0.179540575 56.1850477,0.00999817187 56.4676184,0.00999817187 L60.1975513,0.00999817187 C60.3670937,0.00999817187 60.5931502,0.123026441 60.7061785,0.292568844 C60.8192067,0.462111247 60.8757209,0.744681919 60.7626926,0.914224322 L42.0565141,41.6044011 C41.9434859,41.8869717 41.7174293,42 41.4913728,42 Z" id="W" fill="#1C2A43"></path>
                </g>
            </g>
        </g>
    </g>
</svg>

<svg xmlns="http://www.w3.org/2000/svg" width="61" height="42" viewBox="0 0 61 42">
    <g fill="none" fill-rule="evenodd">
        <path fill="#FFF" d="M29.93 6l18 13.75L41.055 42h-22.25L11.93 19.75z"/>
        <path fill="#1C2A43" d="M19.338 42c-.113 0-.17 0-.283-.057-.339-.17-.452-.508-.282-.847L37.027 1.31H34.71L18.038 37.535a.622.622 0 0 1-.565.34c-.283 0-.509-.114-.622-.34l-1.865-4.125a.513.513 0 0 1 0-.565L29.454 1.31h-2.317L14.252 29.284c-.113.226-.34.396-.566.396a.695.695 0 0 1-.621-.396L.067.914c-.17-.339 0-.678.339-.847.282-.17.678 0 .847.339l12.433 27.07L26.12.406A.695.695 0 0 1 26.74.01h3.73c.226 0 .396.113.509.283.113.17.17.452.056.621l-14.75 32.213 1.187 2.6L33.693.406c.112-.226.339-.396.565-.396h3.73c.226 0 .452.113.565.283.113.17.113.452.056.621l-18.706 40.69a.588.588 0 0 1-.565.396zm22.153 0c-.113 0-.17 0-.282-.057-.283-.17-.452-.508-.283-.847L59.18 1.31h-2.317L40.192 37.535a.622.622 0 0 1-.566.34c-.282 0-.508-.114-.621-.34L37.14 33.41a.963.963 0 0 1 0-.565L51.607 1.31H49.29L36.405 29.284c-.113.226-.339.396-.565.396-.283 0-.509-.17-.565-.396L32.11 22.39c-.17-.34-.056-.679.283-.848.339-.17.734 0 .847.282l2.6 5.652L48.273.406a.695.695 0 0 1 .622-.396h3.73c.226 0 .395.113.508.283.113.17.17.452.057.621L38.44 33.127l1.186 2.6L55.846.406a.695.695 0 0 1 .622-.396h3.73c.17 0 .395.113.508.283.113.17.17.452.057.621l-18.706 40.69a.588.588 0 0 1-.566.396z"/>
    </g>
</svg>
